src/pos-icons/adobe.svg

<svg height="24" viewBox="0 0 24 24" width="24" xmlns="http://www.w3.org/2000/svg"><path d="m14.58 3h7.42v16.67zm-5.16 0h-7.42v16.67zm2.58 6.17 4.67 10.5h-3.17l-1.33-3.34h-3.42z"/></svg>

<?xml version="1.0" encoding="UTF-8"?><!DOCTYPE svg PUBLIC "-//W3C//DTD SVG 1.1//EN" "http://www.w3.org/Graphics/SVG/1.1/DTD/svg11.dtd"><svg xmlns="http://www.w3.org/2000/svg" xmlns:xlink="http://www.w3.org/1999/xlink" version="1.1" id="mdi-adobe" width="24" height="24" viewBox="0 0 24 24"><path d="M14.58,3H22V19.67L14.58,3M9.42,3H2V19.67L9.42,3M12,9.17L16.67,19.67H13.5L12.17,16.33H8.75L12,9.17Z" /></svg>
